X:1
T:Calata ala Spagnola
T:Calata ala Spagnola
T:Joanambrosio Dalza
C:Joanambrosio Dalza
L:1/8
M:3/4
K:C
V:1 tab stafflines=6 strings=G2,C3,F3,A3,D4,G4 nostems nm="Lute" snm="Lt."
V:1
 !4!F,2 !2!F2 !3!C2 | !4!F,2 !1!c2 !1!_B2 | [!4!F,!1!A]2 !1!G2 !2!F2 | [!5!C,!1!G]2 !2!F2 !2!E2 | %4
 !4!F,2 !2!F2 !3!C2 | !4!F,2 !1!c2 !1!_B2 | [!4!F,!1!A]2 !1!G2 !2!F2 | [!5!C,!1!G]2 !2!F2 !2!E2 | %8
 !4!F,2 !2!F2 !3!C2 | !4!F,2 !2!E2 !2!F2 | [!6!_B,,!3!_B,!2!D]2 !6!A,,2 [!6!B,,!3!B,!2!D]2 | %11
 [!5!C,!4!G,!3!C!2!E]2 !2!F2 !2!E2 | !4!F,2 !2!F2 !3!C2 | !4!F,2 !2!E2 !2!F2 | %14
 [!6!_B,,!2!D]2 !2!E2 !2!F2 | [!5!C,!1!G] !2!D !2!E !2!F [!5!C,!2!E]2 | !4!F,2 !2!F2 !3!C2 | %17
 [!4!F,!2!F]4 !1!G2 | [!4!F,!1!A]4 !1!_B2 | [!4!F,!1!c]4 !1!_B2 | [!4!F,!1!A]4 !1!G2 | %21
 [!4!F,!1!A]2 !1!_B4 | [!4!F,!1!A]2 !1!G2 !2!F2 | !4!F,2 !1!d2 !1!c2 | [!4!F,!1!d]2 !1!c2 !1!_B2 | %25
 [!4!F,!1!A]2 !1!_B2 !1!G2 | !1!A2 !1!c2 !1!_B2 | [!4!F,!1!A]2 !1!G2 !2!F2 | %28
 [!5!_E,!1!G]2 !1!A2 !1!_B2 | [!5!_E,!1!G]2 !1!_B2 !1!A2 | [!5!_E,!1!_B]2 !1!A2 !1!B2 | %31
 !1!G2 !1!A2 !1!_B2 | [!4!F,!1!c]2 !1!_B2 !1!A2 | !1!G2 !2!F2 !2!_E2 | %34
 [!6!_B,,!3!_B,!2!D]2 !2!E2 !2!F2 | [!5!C,!2!E]2 !2!F2 !2!E2 | !4!F,2 !2!F2 !3!C2 | %37
 !4!F,2 !2!E2 !2!F2 | [!6!_B,,!2!D] !3!C !2!D !2!E !2!F2 | !5!C, !2!D !2!E !2!F !2!E2 | %40
 !4!F, !1!G !1!A !1!_B !1!c2 | [!4!F,!1!_B]2 !1!G2 !1!B2 | [!4!F,!1!A]2 !1!G2 !2!F2 | %43
 [!5!C,!1!G]2 !2!F !2!E !2!D !2!E | !4!F,2 !2!F2 !3!C2 | !4!F,2 !2!F !2!E !2!F !1!G | %46
 [!4!F,!2!F!1!A]2 [!2!F!1!A]2 !3!C2 | [!4!F,!2!F!1!A]2 [!2!F!1!A]2 !3!C2 | %48
 [!4!F,!2!F!1!A]2 [!2!F!1!A]2 !3!C2 | [!4!F,!2!F!1!A]2 [!2!E!1!G]2 !3!C2 | %50
 [!4!F,!2!F!1!A]2 [!2!F!1!A]2 !3!C2 | [!4!F,!2!F!1!A]2 [!2!F!1!A]2 !3!C2 | %52
 [!4!F,!2!F!1!A]2 [!2!F!1!A]2 !3!C2 | [!4!F,!2!F!1!A]2 [!2!E!1!G]2 !3!C2 | %54
 [!4!F,!2!F!1!A]2 [!2!F!1!A]2 !3!C2 | [!4!F,!2!F!1!A]2 [!2!F!1!^A]2 [!4!F,!2!F!1!=A]2 | %56
 [!5!_E,!1!G]2 !1!A2 !1!_B2 | [!5!_E,!1!G]2 [!5!E,!1!_B]2 !1!A2 | [!5!_E,!1!_B]2 !1!A2 !1!B2 | %59
 !1!G2 !1!A2 !1!_B2 | [!4!F,!1!c]2 !1!_B2 !1!A2 | !1!G2 !2!F2 !2!_E2 | [!6!_B,,!2!D]2 !2!E2 !2!F2 | %63
 !5!C, !2!D !2!E !2!F !2!E2 | !4!F,2 !1!G2 !2!F2 | !4!F,2 !2!E2 !2!F2 | %66
 [!6!_B,,!2!D] !3!C !2!D !2!E !2!F2 | !5!C, !2!D !2!E !2!F [!5!C,!2!E]2 | !4!F,2 !2!F2 !3!C2 | %69
 !4!F, !2!F !2!E !2!D !3!C !3!_B, | !6!A,, !3!B, !3!C !2!D !2!E !2!F | !5!C, !2!D !2!E !2!F !1!G2 | %72
 !4!F,2 !2!F2 !3!C2 | !4!F,2 !2!F !2!E !2!F !1!G | [!4!F,!2!F!1!A]4 [!2!G!1!_B]2 | %75
 [!4!F,!2!A!1!c]4 [!2!G!1!_B]2 | [!4!F,!2!F!1!A]4 [!2!E!1!G]2 | [!4!F,!2!F!1!A]4 [!2!G!1!_B]2 | %78
 [!4!F,!2!F!1!A]2 !1!G2 !2!F2 | !4!F,4 !1!d2 | [!4!F,!2!A!1!c]4 [!2!G!1!_B]2 | %81
 [!4!F,!2!F!1!A]4 [!2!E!1!G]2 | [!4!F,!2!A!1!c]4 [!2!G!1!_B]2 | %83
 [!4!F,!2!F!1!A]2 !1!_B !1!A !1!G !2!F | [!5!_E,!1!G]2 !1!_B2 !1!A2 | [!5!_E,!1!_B]2 !2!_E2 !2!D2 | %86
 [!5!_E,!2!_E]2 !1!G2 !2!F2 | [!5!_E,!1!G]2 !1!c2 !1!_B2 | [!4!F,!1!c]2 !1!_B2 !1!A2 | %89
 !1!G2 !2!F2 !2!_E2 | [!6!_B,,!4!F,!2!D]2 !3!C2 [!6!B,,!4!F,!2!D]2 | %91
 [!5!C,!4!G,!3!C!2!E]2 !2!F2 !2!E2 | [!4!F,!3!C!2!F]2 !1!G2 !2!F2 | !4!F, !1!G !1!A !1!_B !1!c2 | %94
 [!4!F,!1!A]2 !1!_B2 !1!G2 | [!4!F,!1!c]2 !1!c !1!_B !1!A !1!G | [!4!F,!3!C!2!F]2 !2!D2 !2!E2 | %97
 [!4!F,!3!C!2!F]2 !2!E2 [!4!F,!3!C!2!F]2 | [!6!_B,,!4!F,!2!D] !3!C !2!D !2!E !2!F !2!D | %99
 !5!C, !2!D !2!E !2!F [!5!C,!3!C!2!E]2 | !4!F,2 !2!F2 !3!C2 | !4!F, !1!G !1!A !1!_B !1!c2 | %102
 [!4!F,!1!A]2 !1!_B2 !1!G2 | [!4!F,!1!c]2 !1!c !1!_B !1!A !1!G | %104
 [!4!F,!2!F!1!A]2 [!2!F!1!A]2 !3!C2 | !4!F, !1!G !1!A !1!_B !1!c2 | %106
 [!4!F,!2!F!1!A]2 [!2!F!1!A]2 !3!C2 | [!4!F,!1!A]2 !1!c2 !1!_B2 | %108
 [!4!F,!2!F!1!A]2 !1!_B2 [!2!E!1!G]2 | [!4!F,!2!F!1!A]2 !1!c2 !1!_B2 | %110
 [!4!F,!2!F!1!A]2 !1!_B !1!A !1!G !2!F | [!5!_E,!1!G]2 !1!A2 !1!_B2 | [!5!_E,!1!G]2 !1!_B2 !1!A2 | %113
 [!5!_E,!1!_B]2 !1!A2 !1!B2 | [!5!_E,!1!G]2 !1!c2 !1!_B2 | [!4!F,!1!A]2 !1!G2 !1!A2 | %116
 !1!G2 !2!F2 !2!_E2 | [!6!_B,,!4!F,!2!D]2 !2!E2 !2!F2 | !5!C, !2!D !2!E !2!F [!5!C,!2!E]2 | %119
 !4!F,2 !2!F2 !3!C2 | !4!F,2 !1!G2 !4!F,2 | [!5!C,!2!E]2 !1!G2 !4!F,2 | [!5!C,!2!E]2 !1!G2 !2!E2 | %123
 !4!F,2 !2!F2 !3!C2 | !4!F,2 !1!G2 !4!F,2 | [!5!C,!2!E]2 !1!G2 !4!F,2 | [!5!C,!2!E]2 !1!G2 !2!F2 | %127
 !4!F,2 !2!F2 !3!C2 | !4!F,2 !2!E2 !2!D2 | [!6!A,,!3!C]2 !4!F,2 [!6!_B,,!2!D]2 | %130
 !4!F,2 [!5!C,!2!E]2 !3!C2 | !4!F,2 !2!F2 !3!C2 | !4!F,2 !2!E2 !2!D2 | %133
 [!6!A,,!3!C]2 !4!F,2 [!6!_B,,!2!D]2 | !4!F,2 [!5!C,!2!E]2 !3!C2 | !4!F,2 !2!F2 !3!C2 | %136
 !4!F,2 !1!d2 !1!G2 | [!4!F,!1!c]2 !1!G2 [!4!F,!1!c]2 | !1!G2 [!4!F,!1!A]2 !1!G2 | %139
 [!4!F,!1!A]2 !1!G2 !2!F2 | !4!F,2 !1!d2 !1!G2 | [!4!F,!1!c]2 !1!G2 !1!c2 | %142
 !1!G2 [!4!F,!1!A]2 !1!G2 | [!4!F,!1!A]2 !1!G2 !2!F2 | [!4!F,!2!F]2 !2!E2 !2!D2 | %145
 [!4!F,!2!F] !2!D !3!C2 !3!_B,2 | !4!F, !3!_B, !3!A,2 !4!G,2 | [!4!F,!3!A,]2 !3!_B,2 !3!A,2 | %148
 [!4!F,!3!A,]2 !3!C2 !3!_B,2 | [!4!F,!3!A,]2 [!5!E,!4!G,]2 [!5!D,!4!F,]2 | %150
 [!5!C,!4!G,!3!C!2!E]2 !2!F2 !2!E2 | !4!F,2 !2!F2 !3!C2 | !4!F,2 !3!C2 !3!_B,2 | %153
 [!4!F,!3!A,]2 [!5!E,!4!G,]2 [!5!D,!4!F,]2 | [!5!C,!4!G,!3!C!2!E]2 !2!F2 !2!E2 :| %155
 [!4!F,!3!C!2!F]2 x4 |] %156

